X: 37731
T: Soldier's Joy
R: reel
M: 4/4
K: Dmajor
AB|:BAA2FDD2|BAA2FDD2|BAA2BAA2|F2E2E2AB|
BAA2FDD2|BAB2d2e2|f2f2fee2|1 d2f2d2AB:|2 d2f2d2ff||
|:f2g2a2>a2|e2f2g2>g2|f2g2a2g2|fed2A2zf|
f2g2a2g2|e2f2g4|f2f2fee2|1 d2f2d2ff:|2 d2f2d4||

